icon/ir/ev-rounded.svg

<svg stroke-width="1.5" viewBox="0 0 24 24" fill="none" xmlns="http://www.w3.org/2000/svg" height="1em" width="1em">
  <path d="M18.5 9L15.5 15L12.5 9" stroke="currentColor" stroke-linecap="round" stroke-linejoin="round"/>
  <path d="M10 9H6L6 15L10 15" stroke="currentColor" stroke-linecap="round" stroke-linejoin="round"/>
  <path d="M6 12H9" stroke="currentColor" stroke-linecap="round" stroke-linejoin="round"/>
  <path d="M2 15V9C2 5.68629 4.68629 3 8 3H16C19.3137 3 22 5.68629 22 9V15C22 18.3137 19.3137 21 16 21H8C4.68629 21 2 18.3137 2 15Z" stroke="currentColor" stroke-width="1.5"/>
</svg>

<svg width="24" height="24" stroke-width="1.5" fill="none" xmlns="http://www.w3.org/2000/svg"><path d="m18.5 9-3 6-3-6M10 9H6v6h4M6 12h3" stroke="currentColor" stroke-linecap="round" stroke-linejoin="round"/><path d="M2 15V9a6 6 0 0 1 6-6h8a6 6 0 0 1 6 6v6a6 6 0 0 1-6 6H8a6 6 0 0 1-6-6Z" stroke="currentColor"/></svg>
